Newaita-dark/.DP/48/indicator-keyboard-Or.svg

<svg xmlns="http://www.w3.org/2000/svg" xmlns:xlink="http://www.w3.org/1999/xlink" width="48px" height="48px" viewBox="0 0 48 48" version="1.1">
<g id="surface1">
<path style="fill:none;stroke-width:2.995632;stroke-linecap:round;stroke-linejoin:round;stroke:rgb(93.333334%,93.333334%,93.333334%);stroke-opacity:1;stroke-miterlimit:4;" d="M 7.9375 30.144531 L 7.9375 18.234375 C 7.9375 12.28125 13.890625 12.28125 13.890625 12.28125 C 13.890625 12.28125 19.84375 12.28125 19.84375 18.234375 L 19.84375 30.144531 C 19.84375 37.089844 13.890625 37.089844 13.890625 37.089844 C 13.890625 37.089844 7.9375 37.089844 7.9375 30.144531 Z M 27.785156 24.191406 L 39.691406 24.191406 C 39.691406 12.28125 33.738281 12.28125 27.785156 12.28125 L 27.785156 37.089844 M 33.738281 24.191406 L 39.691406 37.089844 "/>
</g>
</svg>

<svg xmlns="http://www.w3.org/2000/svg" width="64" height="64" viewBox="0 0 48 48"><g fill="none" stroke-width="31.95" stroke-linecap="round" stroke-linejoin="round" stroke="#bdbdbd"><path d="M7.938 30.145v-11.91c0-5.954 5.953-5.954 5.953-5.954s5.953 0 5.953 5.953v11.91c0 6.946-5.953 6.946-5.953 6.946s-5.953 0-5.953-6.945zm0 0M27.785 24.191h11.906c0-11.91-5.953-11.91-11.906-11.91V37.09M33.738 24.191l5.953 12.899" stroke-width="2.9956319999999996"/></g></svg>
